packages/ffe-icons/icons/filled/md/view_cozy.svg

<svg xmlns="http://www.w3.org/2000/svg" height="24" viewBox="0 -960 960 960" width="24"><path d="M212.309-540q-30.308 0-51.308-21t-21-51.307v-135.384q0-30.308 21-51.308t51.308-21h135.384q30.307 0 51.307 21 21 21 21 51.308v135.384Q420-582 399-561q-21 21-51.307 21H212.309Zm0 399.999q-30.308 0-51.308-21t-21-51.308v-135.384q0-30.307 21-51.307 21-21 51.308-21h135.384Q378-420 399-399q21 21 21 51.307v135.384q0 30.308-21 51.308t-51.307 21H212.309ZM612.307-540Q582-540 561-561q-21-21-21-51.307v-135.384q0-30.308 21-51.308t51.307-21h135.384q30.308 0 51.308 21t21 51.308v135.384q0 30.307-21 51.307-21 21-51.308 21H612.307Zm0 399.999q-30.307 0-51.307-21-21-21-21-51.308v-135.384Q540-378 561-399q21-21 51.307-21h135.384q30.308 0 51.308 21t21 51.307v135.384q0 30.308-21 51.308t-51.308 21H612.307Z"/></svg>

<svg xmlns="http://www.w3.org/2000/svg" height="24" viewBox="0 -960 960 960" width="24"><path d="M212.31-540Q182-540 161-561q-21-21-21-51.31v-135.38Q140-778 161-799q21-21 51.31-21h135.38Q378-820 399-799q21 21 21 51.31v135.38Q420-582 399-561q-21 21-51.31 21H212.31Zm0 400Q182-140 161-161q-21-21-21-51.31v-135.38Q140-378 161-399q21-21 51.31-21h135.38Q378-420 399-399q21 21 21 51.31v135.38Q420-182 399-161q-21 21-51.31 21H212.31Zm400-400Q582-540 561-561q-21-21-21-51.31v-135.38Q540-778 561-799q21-21 51.31-21h135.38Q778-820 799-799q21 21 21 51.31v135.38Q820-582 799-561q-21 21-51.31 21H612.31Zm0 400Q582-140 561-161q-21-21-21-51.31v-135.38Q540-378 561-399q21-21 51.31-21h135.38Q778-420 799-399q21 21 21 51.31v135.38Q820-182 799-161q-21 21-51.31 21H612.31Z"/></svg>
